X:1
T:Cent mille fois
T:Etienne du Tertre
T:Source : Livre VIII de 25 chansons nouvelles à 4 parties---Paris---N.du Chemin---1550. Editor : André Vierendeels (29/03/18). Notes : Original clefs : C1, C3, C3, F3 Original note values have been halved Editorial accidentals above the staff Square brackets indicate ligatures Dotted bracket indicates black notes m30 in T2 : "F" notated as "E" in original print
T:#
T:Cent mille fois
T:©
T:©
T:©
T:©
T:©
C:Etienne du Tertre
Z:©
%%score [ 1 [ 2 3 ] 4 ]
L:1/8
Q:1/4=118
M:2/2
K:C
V:1 treble nm="Alto" snm="A"
V:2 treble-8 nm="Tenor 1" snm="T 1"
V:3 treble-8 nm="Tenor 2" snm="T 2"
V:4 bass nm="Bass" snm="B"
V:1
 G4 A2 A2 | G2 G2 A2 B2 | c2 c2 BAGF | E2 c4 B2- | B2 A4 G2 | A4 z2 E2 | G4 F4 | E2 G2 G2 G2 | %8
w: Cent mil- le|fois es- tant de-|dans ma cou- * * *|||che, seu-|le sans|vous, et de mon|
w: J'ay sou- hait-|té ces- te tant|doul- ce bou- * * *|||che, (de|vous, a-|my) qui sou- vent|
 A2 A2 G4 | E2 G2 G2 G2 | A3 G/F/ G2 A2- | A2 G4 F2 |1 G4 z4 :|2 G2 E4 E2 || F4 E4 | z2 G4 G2 | %16
w: ma- ry veuf-|ve, et de mon|ma- * * * ry|_ veuf- *|ve,|ve, de no-|stre'a- mour,|de no-|
w: a faict prou-|ve, qui sou- vent|a _ _ _ faict|_ prou _|_||||
 A4 G2 G2 | F2 D2 F2 F2 | E4 D4 | z2 G2 G2 G2 | CDEF G2 G2 | A2 c3 B A2- | A2 G4 F2 | G2 B2 B2 B2 | %24
w: stre'a- mour qui|à aul- tre ne|trou- ve,|es- tre sem-|bla- * * * * bl'en|cas d'hon- * *|* ne ste-|té, d'hon- ne- ste-|
w: ||||||||
 G2 G2 A4- | A2 A2 G2 FE | F2 F2 E4 |: z4 G4 | A2 A2 G2 G2 | A2 B2 c2 c2 | BAGF E2 c2- | %31
w: té, en cas|_ d'hon- ne- * *|* ste- té,|car|si cou- chez en-|sem- ble'on nous des-|cou- * * * * *|
w: |||||||
 c2 B3 A A2- | A2 G2 A4 | z2 E2 G4 | F4 E2 G2 | G2 G2 A4 | G4 E2 G2 | G2 G2 A3 G/F/ | G2 A3 G G2- | %39
w: |* * vre,|ia pour|ce- la ne|per- drois cha-|te- té, ne|per- drois cha- * *||
w: ||||||||
[M:2/4]"^#" G2 F2 |[M:2/2] G8 :| %41
w: * ste-|té.|
w: ||
V:2
 d4 f2 d2 | e3 e e2 g2 | g2 f2 g2 G2 | G4 z2 g2 | g2 e2 e4 | c2 A2 c4 | BABc d4 | G2 g3 f e2- | %8
w: Cent mil- le|fois es- tant de-|dans ma cou- *|che, de-|dans ma cou-|che, seu- le|sans _ _ _ _|vous, sans _ _|
w: J'ay sou- hait-|té ces- te tant|doul- ce bou- *|che, tant|doul- ce bou-|che, (de vous,|a- * * * *|my, de vous, a-|
 e2 d2 e4 | z2 e2 d2 e2 | c2 f2 e4- | e2 c2 d4 |1 B4 z4 :|2 B2 c2 G2 c2- ||"^b" c2 B2 c4 | %15
w: _ _ vous,|et de mon|ma- ry veuf-||ve,|ve, de no- stre'a-|* * mour,|
w: * * my)|qui sou- vent|a faict prou|_ _ _||||
 z2 e4 d2 | f4 e4 | z2 d2 d2 d2 | B2 c2 A2 G2 | g2 d2 e4 | z2 c2 e2 e2 | f2 c2 e2 f2 | d2 B2 c4 | %23
w: de no-|stre'a- mour,|qui à aul-|tre ne trou- *|* * ve,|es- tre sem-|bla- bl'en cas d'hon-|ne- * ste-|
w: ||||||||
 d2 z g g2 g2 | d2 d2 f4 | cBcd e2 c2 | d4 G4 |: z4 d4 | f2 d2 e2 e2 | e2 g2 g2 f2 | g2 G2 G4 | %31
w: té, en cas d'hon-|ne- ste- té,|d'hon- * * * * ne-|ste- té,|car|si cou- chez en-|sem- ble'on nous des-|cou- * vre,|
w: ||||||||
 z2 g2 g2 e2 | e4 c2 A2 | c4 BABc | d4 G2 g2- | gf e4 d2 | e4 z2 c2 | d2 e2 c2 f2 | e6 c2 | %39
w: ia pour ce-|la, ia pour|ce- la, _ _ _|_ ia pour|_ _ _ ce-|la, ne|per- drois cha- *||
w: ||||||||
[M:2/4] d4 |[M:2/2] d8 :| %41
w: ste-|té.|
w: ||
V:3
 B4 c2 A2 | B2 G2 c2 d2 | e2 c2 d4 | c2 e2 e2 e2 | d2 c2 B4 | A8 | z4 z2 A2 | c4 B4 | A2 A2 B2 G2 | %9
w: Cent mil- le|fois es- tant de-|dans ma cou-|che, es- tant de-|dans ma cou-|che,|seu-|le sans|vous, et de mon|
w: J'ay sou- hait-|té ces- te tant|doul- ce bou-|che, ces- te tant|doul- ce bou-|che,|(de|vous, a-|my) qui sou- vent|
 c2 c2 B4 | A2 d2 B2 c2 | B2 AG A4 |1 G4 z4 :|2 G2 G2 E2 G2- || G2 F2 G2 c2- | c2 c2 B4 | %16
w: ma- ry veuf-|ve, et de mon|ma- ry _ veuf-|ve,|ve, de no- stre'a-|* * mour, de|_ no- stre'a-|
w: a faict prou-|ve, sou- vent a|faict _ _ prou|_||||
 c2 d2 B2 c2 | A2 B2 A4 | G4 z2 B2 | B2 B2 c4 | A4 z2 c2 | c2 c2 A2 c2 | B2 d2 c2 A2 | BABc d4 | %24
w: mour qui à aul-|tre ne trou-|ve, es-|tre sem- bla-|ble, es|tre sem- bla- bl'en|cas d'hon- ne- ste|té, _ _ _ _|
w: ||||||||
 z2 d2 d2 d2 | A2 A2 B2 G2 | A2 B2 c4 |: z4 B4 | c2 A2 B2 G2 | c2 d2 e2 f2 | d4 c2 e2 | %31
w: en cas d'hon-|ne- ste- té, d'hon-|ne- ste- té,|car|si cou- chez en-|sem- ble'on nous des-|cou- vre, on|
w: |||||||
 e2 e2 d2 c2 | B4 A4- | A4 z4 | z2 A2 c4 | B4 A2 A2 | B2 G2 c4 | B4 A2 d2 | B2 c2 B2 AG | %39
w: nous des- * *|cou- vre,|_|ia pour|ce- la na|per- drois cha|ste _ té,|ne per- drois cha- *|
w: ||||||||
[M:2/4] A4 |[M:2/2] G8 :| %41
w: ste-|té.|
w: ||
V:4
 G,4 F,2 F,2 | E,2 E,2 A,2 G,2 | C2 A,2 G,4 | C,2 C,2 C,D,E,F, | G,2 A,2 E,4 | A,,4 z2 A,,2 | %6
w: Cent mil- le|fois es- tant de-|dans ma cou-|che, de- dans _ _ _|_ ma- cou-|che, seu-|
w: J'ay sou- hait-|té ces- te tant|doul- ce bou-|che, tant doul- * * *|* ce bou-|che, (de|
 E,4 D,4 | C,2 E,2 G,4 | F,4 E,2 E,2 | C,D,E,F, G,2 E,2 | F,2 D,2 E,2 D,C, | E,4 D,4 |1 G,4 z4 :|2 %13
w: le sans|vous, seu- le|sans vous, et|de _ _ _ _ mon|ma- ry veuf- * *||ve,|
w: vous, a-|my, de vous|a- my) qui|sou- * * * * vent|a faict prou _ _|_ _||
 G,2 C,4 C,2 || D,4 C,4- | C,4 z2 G,2 | F,2 D,2 E,2 C,2 | F,2 G,2 D,4 | E,2 C,2 D,2 G,2 | %19
w: ve, de no-|stre'a- mour,|_ qui|à aul- tre ne|trou- * *|* * ve, es-|
w: ||||||
 G,2 G,2 C,2 C,2 | z2 C2 C2 C2 | F,G,A,B, C2 F,2 | G,2 G,2 A,2 A,2 | G,4 z2 G,2 | G,2 G,2 D,2 D,2 | %25
w: tre sem- bla- ble,|es- tre sem-|bla- * * * * bl'en|cas d'hon- ne- ste-|té, en|cas d'hon- ne- ste-|
w: ||||||
 F,2 F,2 E,4 | D,4 C,4 |: z4 G,4 | F,2 F,2 E,2 E,2 | A,2 G,2 C2 A,2 | G,4 C,2 C,2 | %31
w: té, d'nin- ne-|ste- té,|car|si cou- chez en-|sem- ble'on nous des-|cou- vre, on|
w: ||||||
 C,D,E,F, G,2 A,2 | E,4 A,,4 | z2 A,,2 E,4 | D,4 C,2 E,2 | G,4 F,4 | E,2 E,2 C,D,E,F, | %37
w: nous _ _ _ _ des-|cou- vre|ia pour|ce- la, ia|pour ce-|la per- drois _ _ _|
w: ||||||
 G,2 E,2 F,2 D,2 | E,2 D,C, E,4 |[M:2/4] D,4 |[M:2/2] G,8 :| %41
w: _ cha- ste- té,|cha- * * ste-||té.|
w: ||||

